X:0532
T:Athole House.
M:C
L:1/8
Q:1/2=104
I: :| ||
Z:Jack Campin * www.campin.me.uk * 2009
K:G
g|dGBG         dG e/d/c/B/|dGBG        F(A2g)|dGBG     dBgd|e/d/c/B/ dD EGG:|
d|g2 (b/a/g/f/ g)dBd      |Gd e/d/c/B/ c`AAd |g2 b/a/g dgBd|egfa        dg2
d|gdbg         fdc'b      |bgdg        f a2c'|bgdg     ecAc|BGdD        EGG|]

